X:2
T: HOPSA MEI LORCHE DREH DICH MAL DRUM
N: E1001A
O: Europa, Mitteleuropa, Deutschland, Hessen, Kreis Wetzlar
R: Tanz - Lied, Hopps - Walzer
M: 3/8
L: 1/8
K: G
 | BBB | B2d | dcc | B2z
BBB | dcc | Acc | cBB
BBB | B2d | dcc | B2z

